!!! OTL: Berkowitz334
!!! Chapter: 1
!!! Section: III
!!! Page: 81
!!! Mode: 
!!! Encoder: DJB
**kern
*staff1
*I"Piano
=1-
*clefC3
*k[b-]
*d:
*M2/4
16d\LL
16e\
16f\
16g\JJ
8a\L
8a\J
=2
8b-\L
8b-\J
4a\
=3
16f\LL
16e\
16f\
16g\JJ
8a\L
8d\J
=4
8b-\L
8b-\J
4a\
=5
8g#\L
8g#\J
4gn\
=6
8f#\L
8f#\J
4fn\
=7
8e\L
8d#\J
8e\L
8d#\J
=8
8e\
8r
4a\
=9
!!linebreak:original
16b-\LL
16a\
16g\
16a\JJ
8b-\L
8cc#\J
=10
8dd\L
8dd\J
4a\
=11
16g\LL
16f#\
16g\
16a\JJ
8g\L
8fn\J
=12
8e\L
[8a\J
16a\LL]
16g\
16f\
16e\JJ
=13
16d\LL
16e\
16f\
16g\JJ
8a\L
8f\J
=14
8b-\L
8b-\J
8a\L
8dd\J
=15
16cc\LL
16b-\
16a\
16g\JJ
8f\L
8e\J
=16
!!linebreak:original
4d\
4r
==
*-
